app-template/copay/img/onboarding/tour-currency.svg

<?xml version="1.0" encoding="utf-8"?>
<!-- Generator: Adobe Illustrator 21.0.0, SVG Export Plug-In . SVG Version: 6.00 Build 0)  -->
<svg version="1.1" id="Capa_1" xmlns="http://www.w3.org/2000/svg" xmlns:xlink="http://www.w3.org/1999/xlink" x="0px" y="0px"
	 width="377px" height="247px" viewBox="0 0 377 247" style="enable-background:new 0 0 377 247;" xml:space="preserve">
<style type="text/css">
	.st0{opacity:0.3;fill:url(#Shape_7_);enable-background:new    ;}
	.st1{opacity:0.3;fill:url(#Shape_8_);enable-background:new    ;}
	.st2{opacity:0.3;}
	.st3{fill:#26EEA2;}
	.st4{opacity:0.64;fill:none;stroke:#01092D;stroke-width:2;stroke-linecap:square;enable-background:new    ;}
	.st5{fill:#01092D;stroke:#FFFFFF;stroke-width:3;}
</style>
<title>tour-currency</title>
<desc>Created with Sketch.</desc>
<g id="Page-1">
	<g id="tour-currency" transform="translate(-1.000000, 0.000000)">
		
			<linearGradient id="Shape_7_" gradientUnits="userSpaceOnUse" x1="-49.2935" y1="522.8826" x2="-49.2935" y2="521.988" gradientTransform="matrix(247 0 0 -247 12365 129152)">
			<stop  offset="0" style="stop-color:#192C3A"/>
			<stop  offset="1" style="stop-color:#192C3A"/>
		</linearGradient>
		<path id="Shape" class="st0" d="M189.5,247c68.2,0,123.5-55.3,123.5-123.5S257.7,0,189.5,0S66,55.3,66,123.5S121.3,247,189.5,247z
			"/>
		
			<linearGradient id="Shape_8_" gradientUnits="userSpaceOnUse" x1="-49.364" y1="521.16" x2="-49.364" y2="522.16" gradientTransform="matrix(375 0 0 -150 18701 78359)">
			<stop  offset="0" style="stop-color:#192C3A"/>
			<stop  offset="1" style="stop-color:#192C3A"/>
		</linearGradient>
		<polygon id="Shape_1_" class="st1" points="56.3,127.3 99.7,97.8 142.1,119.9 186.6,80.7 224.9,80.7 249.7,47.5 282.8,67.2 
			323.2,56.1 377,35 377,185 152.1,185 2.4,185 2,133.5 		"/>
		<g id="Group" transform="translate(76.000000, 61.000000)" class="st2">
			<path id="Shape_2_" class="st3" d="M226.2,124h-0.5v-4h0.5V124z M226.2,116h-0.5v-4h0.5V116z M226.2,108h-0.5v-4h0.5V108z
				 M226.2,100h-0.5v-4h0.5V100z M226.2,92h-0.5v-4h0.5V92z M226.2,84h-0.5v-4h0.5V84z M226.2,76h-0.5v-4h0.5V76z M226.2,68h-0.5v-4
				h0.5V68z M226.2,60h-0.5v-4h0.5V60z M226.2,52h-0.5v-4h0.5V52z M226.2,44h-0.5v-4h0.5V44z M226.2,36h-0.5v-4h0.5V36z M226.2,28
				h-0.5v-4h0.5V28z M226.2,20h-0.5v-4h0.5V20z M226.2,12h-0.5V8h0.5V12z M226.2,4h-0.5V0h0.5V4z"/>
			<path id="Shape_3_" class="st3" d="M151.2,124h-0.5v-4h0.5V124z M151.2,116h-0.5v-4h0.5V116z M151.2,108h-0.5v-4h0.5V108z
				 M151.2,100h-0.5v-4h0.5V100z M151.2,92h-0.5v-4h0.5V92z M151.2,84h-0.5v-4h0.5V84z M151.2,76h-0.5v-4h0.5V76z M151.2,68h-0.5v-4
				h0.5V68z M151.2,60h-0.5v-4h0.5V60z M151.2,52h-0.5v-4h0.5V52z M151.2,44h-0.5v-4h0.5V44z M151.2,36h-0.5v-4h0.5V36z M151.2,28
				h-0.5v-4h0.5V28z M151.2,20h-0.5v-3.2h0.5V20z"/>
			<path id="Shape_4_" class="st3" d="M76.2,124h-0.5v-4h0.5V124z M76.2,116h-0.5v-4h0.5V116z M76.2,108h-0.5v-4h0.5V108z M76.2,100
				h-0.5v-4h0.5V100z M76.2,92h-0.5v-4h0.5V92z M76.2,84h-0.5v-4h0.5V84z M76.2,76h-0.5v-4h0.5V76z M76.2,68h-0.5v-4h0.5V68z
				 M76.2,60h-0.5v-4h0.5V60z M76.2,52h-0.5v-2h0.5V52z"/>
			<path id="Shape_5_" class="st3" d="M1.2,124H0.7v-4h0.5V124z M1.2,116H0.7v-4h0.5V116z M1.2,108H0.7v-4h0.5V108z M1.2,100H0.7v-4
				h0.5V100z M1.2,92H0.7v-4h0.5V92z M1.2,84H0.7v-4h0.5V84z M1.2,76H0.7v-4h0.5V76z M1.2,68H0.7v-4h0.5V68z M1.2,60H0.7v-4h0.5V60z
				"/>
		</g>
		<path id="Shape_6_" class="st3" d="M2,134.5c-0.5,0-0.9-0.4-1-0.9s0.3-1,0.9-1.1l54.1-6.2L99.1,97c0.3-0.2,0.7-0.2,1-0.1
			l41.8,21.8l44-38.7c0.2-0.2,0.4-0.2,0.7-0.2h37.8L248.9,47c0.3-0.4,0.9-0.5,1.3-0.3l32.7,19.5l39.9-11l53.8-21.1
			c0.5-0.2,1.1,0.1,1.3,0.6c0.2,0.5-0.1,1.1-0.6,1.3l-53.8,21.1h-0.1L283,68.2c-0.3,0.1-0.5,0-0.8-0.1L250,48.9l-24.3,32.5
			c-0.2,0.3-0.5,0.4-0.8,0.4H187l-44.2,39c-0.3,0.3-0.8,0.3-1.1,0.1L99.8,99l-42.9,29.2c-0.1,0.1-0.3,0.1-0.4,0.2l-54.3,6.2
			C2.1,134.5,2,134.5,2,134.5z"/>
		<g id="Group_1_" transform="translate(185.000000, 38.000000)">
			<path id="Line_1_" class="st4" d="M4.5,0.5v146"/>
			<circle id="dot" class="st5" cx="4.5" cy="41.5" r="4.5"/>
		</g>
	</g>
</g>
</svg>

<?xml version="1.0" encoding="UTF-8"?>
<svg width="377px" height="247px" viewBox="0 0 377 247" version="1.1" xmlns="http://www.w3.org/2000/svg" xmlns:xlink="http://www.w3.org/1999/xlink">
    <!-- Generator: Sketch 42 (36781) - http://www.bohemiancoding.com/sketch -->
    <title>tour-currency</title>
    <desc>Created with Sketch.</desc>
    <defs>
        <linearGradient x1="50.0034413%" y1="0.00943319838%" x2="50.0034413%" y2="89.4694332%" id="linearGradient-1">
            <stop stop-color="#192C3A" offset="0%"></stop>
            <stop stop-color="#192C3A" offset="100%"></stop>
        </linearGradient>
        <linearGradient x1="50%" y1="100.020333%" x2="50%" y2="0.0203333333%" id="linearGradient-2">
            <stop stop-color="#192C3A" offset="0%"></stop>
            <stop stop-color="#192C3A" offset="100%"></stop>
        </linearGradient>
    </defs>
    <g id="Page-1" stroke="none" stroke-width="1" fill="none" fill-rule="evenodd">
        <g id="tour-currency" transform="translate(-1.000000, 0.000000)">
            <path d="M189.5,247 C257.7,247 313,191.7 313,123.5 C313,55.3 257.7,0 189.5,0 C121.3,0 66,55.3 66,123.5 C66,191.7 121.3,247 189.5,247 Z" id="Shape" fill="url(#linearGradient-1)" fill-rule="nonzero" opacity="0.3"></path>
            <polygon id="Shape" fill="url(#linearGradient-2)" fill-rule="nonzero" opacity="0.3" points="56.3 127.3 99.7 97.8 142.1 119.9 186.6 80.7 224.9 80.7 249.7 47.5 282.8 67.2 323.2 56.1 377 35 377 185 152.1 185 2.4 185 2 133.5"></polygon>
            <g id="Group" opacity="0.3" transform="translate(76.000000, 61.000000)" fill-rule="nonzero" fill="#13E5B6">
                <path d="M226.2,124 L225.7,124 L225.7,120 L226.2,120 L226.2,124 Z M226.2,116 L225.7,116 L225.7,112 L226.2,112 L226.2,116 Z M226.2,108 L225.7,108 L225.7,104 L226.2,104 L226.2,108 Z M226.2,100 L225.7,100 L225.7,96 L226.2,96 L226.2,100 Z M226.2,92 L225.7,92 L225.7,88 L226.2,88 L226.2,92 Z M226.2,84 L225.7,84 L225.7,80 L226.2,80 L226.2,84 Z M226.2,76 L225.7,76 L225.7,72 L226.2,72 L226.2,76 Z M226.2,68 L225.7,68 L225.7,64 L226.2,64 L226.2,68 Z M226.2,60 L225.7,60 L225.7,56 L226.2,56 L226.2,60 Z M226.2,52 L225.7,52 L225.7,48 L226.2,48 L226.2,52 Z M226.2,44 L225.7,44 L225.7,40 L226.2,40 L226.2,44 Z M226.2,36 L225.7,36 L225.7,32 L226.2,32 L226.2,36 Z M226.2,28 L225.7,28 L225.7,24 L226.2,24 L226.2,28 Z M226.2,20 L225.7,20 L225.7,16 L226.2,16 L226.2,20 Z M226.2,12 L225.7,12 L225.7,8 L226.2,8 L226.2,12 Z M226.2,4 L225.7,4 L225.7,0 L226.2,0 L226.2,4 Z" id="Shape"></path>
                <path d="M151.2,124 L150.7,124 L150.7,120 L151.2,120 L151.2,124 Z M151.2,116 L150.7,116 L150.7,112 L151.2,112 L151.2,116 Z M151.2,108 L150.7,108 L150.7,104 L151.2,104 L151.2,108 Z M151.2,100 L150.7,100 L150.7,96 L151.2,96 L151.2,100 Z M151.2,92 L150.7,92 L150.7,88 L151.2,88 L151.2,92 Z M151.2,84 L150.7,84 L150.7,80 L151.2,80 L151.2,84 Z M151.2,76 L150.7,76 L150.7,72 L151.2,72 L151.2,76 Z M151.2,68 L150.7,68 L150.7,64 L151.2,64 L151.2,68 Z M151.2,60 L150.7,60 L150.7,56 L151.2,56 L151.2,60 Z M151.2,52 L150.7,52 L150.7,48 L151.2,48 L151.2,52 Z M151.2,44 L150.7,44 L150.7,40 L151.2,40 L151.2,44 Z M151.2,36 L150.7,36 L150.7,32 L151.2,32 L151.2,36 Z M151.2,28 L150.7,28 L150.7,24 L151.2,24 L151.2,28 Z M151.2,20 L150.7,20 L150.7,16.8 L151.2,16.8 L151.2,20 Z" id="Shape"></path>
                <path d="M76.2,124 L75.7,124 L75.7,120 L76.2,120 L76.2,124 Z M76.2,116 L75.7,116 L75.7,112 L76.2,112 L76.2,116 Z M76.2,108 L75.7,108 L75.7,104 L76.2,104 L76.2,108 Z M76.2,100 L75.7,100 L75.7,96 L76.2,96 L76.2,100 Z M76.2,92 L75.7,92 L75.7,88 L76.2,88 L76.2,92 Z M76.2,84 L75.7,84 L75.7,80 L76.2,80 L76.2,84 Z M76.2,76 L75.7,76 L75.7,72 L76.2,72 L76.2,76 Z M76.2,68 L75.7,68 L75.7,64 L76.2,64 L76.2,68 Z M76.2,60 L75.7,60 L75.7,56 L76.2,56 L76.2,60 Z M76.2,52 L75.7,52 L75.7,50 L76.2,50 L76.2,52 Z" id="Shape"></path>
                <path d="M1.2,124 L0.7,124 L0.7,120 L1.2,120 L1.2,124 Z M1.2,116 L0.7,116 L0.7,112 L1.2,112 L1.2,116 Z M1.2,108 L0.7,108 L0.7,104 L1.2,104 L1.2,108 Z M1.2,100 L0.7,100 L0.7,96 L1.2,96 L1.2,100 Z M1.2,92 L0.7,92 L0.7,88 L1.2,88 L1.2,92 Z M1.2,84 L0.7,84 L0.7,80 L1.2,80 L1.2,84 Z M1.2,76 L0.7,76 L0.7,72 L1.2,72 L1.2,76 Z M1.2,68 L0.7,68 L0.7,64 L1.2,64 L1.2,68 Z M1.2,60 L0.7,60 L0.7,56 L1.2,56 L1.2,60 Z" id="Shape"></path>
            </g>
            <path d="M2,134.5 C1.5,134.5 1.1,134.1 1,133.6 C0.9,133.1 1.3,132.6 1.9,132.5 L56,126.3 L99.1,97 C99.4,96.8 99.8,96.8 100.1,96.9 L141.9,118.7 L185.9,80 C186.1,79.8 186.3,79.8 186.6,79.8 L224.4,79.8 L248.9,47 C249.2,46.6 249.8,46.5 250.2,46.7 L282.9,66.2 L322.8,55.2 L376.6,34.1 C377.1,33.9 377.7,34.2 377.9,34.7 C378.1,35.2 377.8,35.8 377.3,36 L323.5,57.1 L323.4,57.1 L283,68.2 C282.7,68.3 282.5,68.2 282.2,68.1 L250,48.9 L225.7,81.4 C225.5,81.7 225.2,81.8 224.9,81.8 L187,81.8 L142.8,120.8 C142.5,121.1 142,121.1 141.7,120.9 L99.8,99 L56.9,128.2 C56.8,128.3 56.6,128.3 56.5,128.4 L2.2,134.6 C2.1,134.5 2,134.5 2,134.5 Z" id="Shape" fill="#13E5B6" fill-rule="nonzero"></path>
            <g id="Group" transform="translate(185.000000, 38.000000)">
                <path d="M4.5,0.5 L4.5,146.5" id="Line_1_" stroke="#0085FF" stroke-width="2" stroke-linecap="square" opacity="0.64"></path>
                <circle id="dot" stroke="#FFFFFF" stroke-width="3" fill="#1A2A71" fill-rule="nonzero" cx="4.5" cy="41.5" r="4.5"></circle>
            </g>
        </g>
    </g>
</svg>
